!!!OTL: "Leichter Trost" AUF D ALM GEHN WIR AUSI
!!!ARE: Europa, Mitteleuropa, Tirol
!!!SCT: Z1206
!!!YEM: Copyright 1995, estate of Helmut Schaffrath.
**kern
*ICvox
*Ivox
*M2/4
*k[f#]
*G:
{8g
=1
8g
8b
8dd
8gg
=2
4dd
8b}
{8b
=3
8dd
8cc
8cc
8f#
=4
8g
8b}
{4dd
=5
8d
8aa
4ff#
=6
8dd
8bb}
{4gg
=7
8cc
8aa
8a
8ff#
=8
4gg
8r}
{8g
=9
8g
8b
8dd
8gg
=10
8dd
8b
8b}
{8b
=11
8dd
8cc
8cc
8f#
=12
8g
8b}
{4dd
=13
8cc
8aa
4ff#
=14
8dd
8bb}
{4gg
=15
8cc
8aa
8a
8ff#
=16
4.gg}
{8g
=17
8g
8e
8e
8e
=18
4cc
8cc}
{8cc
=19
8.f#
16f#
12f#
12g
12a
=20
4.b}
{8b
=21
8g
8b
8dd
8gg
=22
8.dd
16b
8b}
{8b
=23
8dd
8cc
8cc
8f#
=24
8g
8b}
{4dd
=25
8cc
8aa
4ff#
=26
8dd
8bb}
{4gg
=27
8cc
8aa
8a
8ff#
=28
4gg
8r}
{8g
=29
8g
8e
8e
8e
=30
4cc
8cc}
{8cc
=31
8.f#
16f#
12f#
12g
12a
=32
4.b}
{8b
=33
8g
8b
8dd
8gg
=34
8.dd
16b
8b}
{8b
=35
8dd
8cc
8cc
8f#
=36
8g
8b}
{4dd
=37
8cc
8aa
4ff#
=38
8dd
8bb}
{4gg
=39
8cc
8aa
8a
8ff#
=40
4gg
8r}
==
!!!AGN: Liebes - Lied
!!!ONB: ESAC (Essen Associative Code) Database: ZUCCAL
!!!AMT: simple duple
!!!AIN: vox
!!!EED: Helmut Schaffrath
!!!EEV: 1.0
*-
